src/assets/images/icon/calendar/calendar.svg

<svg width="24" height="24" viewBox="0 0 24 24" fill="none" xmlns="http://www.w3.org/2000/svg">
<path d="M8.87408 2.40002V4.32002H14.8804V2.40002H15.9382V4.32002H20.6404C20.895 4.32002 21.1392 4.42117 21.3192 4.6012C21.4992 4.78124 21.6004 5.02542 21.6004 5.28002V20.64C21.6004 20.8946 21.4992 21.1388 21.3192 21.3188C21.1392 21.4989 20.895 21.6 20.6404 21.6H3.36039C3.10578 21.6 2.8616 21.4989 2.68157 21.3188C2.50153 21.1388 2.40039 20.8946 2.40039 20.64V5.28002C2.40039 5.02542 2.50153 4.78124 2.68157 4.6012C2.8616 4.42117 3.10578 4.32002 3.36039 4.32002H7.87673L7.87689 2.40002H8.87408ZM20.6404 11.7376H3.36039V20.4928H12.0239H20.7172L20.6404 11.7376ZM7.87689 5.28002H3.36039V10.6561H20.7172L20.6404 5.51637H15.9382V8.16002H14.8804V5.28002H8.90857V8.16002H7.87689V5.28002Z" fill="#0F0F0F"/>
</svg>

<svg xmlns="http://www.w3.org/2000/svg" width="24" height="24" fill="none"><path fill="#0F0F0F" d="M8.874 2.4v1.92h6.006V2.4h1.058v1.92h4.702a.96.96 0 0 1 .96.96v15.36a.96.96 0 0 1-.96.96H3.36a.96.96 0 0 1-.96-.96V5.28a.96.96 0 0 1 .96-.96h4.517V2.4h.997Zm11.766 9.338H3.36v8.755h17.357l-.077-8.755ZM7.877 5.28H3.36v5.376h17.357l-.077-5.14h-4.702V8.16H14.88V5.28H8.91v2.88H7.877V5.28Z"/></svg>
